X:1
T:A Babe Is Born
T:A Babe Is Born
T:15th Century English
T:Public Domain Courtesy of the Cyber Hymnal™
C:15th Century English
Z:Public Domain
Z:Courtesy of the Cyber Hymnal™
%%score ( 1 2 ) ( 3 4 )
L:1/8
Q:1/4=115
M:4/4
K:E
V:1 treble 
V:2 treble 
V:3 bass 
V:4 bass 
V:1
"^Solo" G2 | c4 c2 B2 | c4 c2 B2 | G6 F2 | E3 F G2 E2 | !fermata!C6 |:"^Refrain" C2 | C2 G2 F2 G2 | %8
 E3 D C2 G2 | [Ec]2 [Fd]2 [Ae]2 [Fd]2 | [Ec]2 Bc G2 G2 | [Gc]2 [Gd]2 [Ge]2 [Gd]2 | %12
 [Ac]2 Bc [EG]3 [DF] | [CE]2 [B,F]2 [B,G]3 [B,E] x | C2"^Play 5 times" [A,C]2 [G,C]2 :| %15
V:2
 x2 | x8 | x8 | x8 | x8 | x6 |: C2 | C2 G2 F2 G2 | E3 D C2 G2 | x8 | x2 F2 G2 G2 | x8 | x2 F2 x4 | %13
 x9 | C2 x4 :| %15
V:3
 z2 | z8 | z8 | z8 | z8 | z6 |: C,2 | C,2 G,2 F,2 G,2 | E,3 D, C,2 G,2 | %9
 [C,G,]2 [B,,B,]2 [A,,C]2 [B,,B,]2 | [C,G,]2 [D,F,]2 [E,C]2 [G,D]2 | [CE]2 [G,D]2 [C,C]2 [B,,D]2 | %12
 [A,,E]2 [B,,D]2 [E,B,]3 [B,,B,] | [C,G,]2 [C,F,]2 E,3 z E, | %14
 C,2"^Play 5 times" [F,,F,]2 [C,^E,]2 :| %15
V:4
 x2 | x8 | x8 | x8 | x8 | x6 |: C,2 | C,2 G,2 F,2 G,2 | E,3 D, C,2 G,2 | x8 | x8 | x8 | x8 | %13
 x4 E,2 G,,2 x | C,2 x4 :| %15

